Newaita-dark/.places-retrowave/128/folder-downloads.svg

<?xml version="1.0" encoding="UTF-8"?>
<svg xmlns="http://www.w3.org/2000/svg" xmlns:xlink="http://www.w3.org/1999/xlink" width="128pt" height="128pt" viewBox="0 0 128 128" version="1.1">
<defs>
<linearGradient id="linear0" gradientUnits="userSpaceOnUse" x1="254" y1="233.5" x2="254" y2="254.666672" gradientTransform="matrix(0.250024,0,0,0.250024,-0.0000152602,53.75514)">
<stop offset="0" style="stop-color:rgb(0%,0%,0%);stop-opacity:0.27451;"/>
<stop offset="1" style="stop-color:rgb(0%,0%,0%);stop-opacity:0;"/>
</linearGradient>
<radialGradient id="radial0" gradientUnits="userSpaceOnUse" cx="450.908936" cy="189.579361" fx="450.908936" fy="189.579361" r="21.166656" gradientTransform="matrix(0.000000696681,-0.31253,-0.562554,-0.000000406154,216.460851,254.38133)">
<stop offset="0" style="stop-color:rgb(0%,0%,0%);stop-opacity:0.313725;"/>
<stop offset="0.222222" style="stop-color:rgb(0%,0%,0%);stop-opacity:0.27451;"/>
<stop offset="1" style="stop-color:rgb(0%,0%,0%);stop-opacity:0;"/>
</radialGradient>
<radialGradient id="radial1" gradientUnits="userSpaceOnUse" cx="450.908936" cy="189.579361" fx="450.908936" fy="189.579361" r="21.166656" gradientTransform="matrix(-0.000000696681,0.31253,0.562554,0.000000406154,-89.448711,-30.109915)">
<stop offset="0" style="stop-color:rgb(0%,0%,0%);stop-opacity:0.313725;"/>
<stop offset="0.222222" style="stop-color:rgb(0%,0%,0%);stop-opacity:0.27451;"/>
<stop offset="1" style="stop-color:rgb(0%,0%,0%);stop-opacity:0;"/>
</radialGradient>
<radialGradient id="radial2" gradientUnits="userSpaceOnUse" cx="450.908936" cy="189.579361" fx="450.908936" fy="189.579361" r="21.166656" gradientTransform="matrix(-0.000000696681,-0.31253,0.562554,-0.000000406154,-89.448711,254.38133)">
<stop offset="0" style="stop-color:rgb(0%,0%,0%);stop-opacity:0.313725;"/>
<stop offset="0.222222" style="stop-color:rgb(0%,0%,0%);stop-opacity:0.27451;"/>
<stop offset="1" style="stop-color:rgb(0%,0%,0%);stop-opacity:0;"/>
</radialGradient>
<radialGradient id="radial3" gradientUnits="userSpaceOnUse" cx="450.908936" cy="189.579361" fx="450.908936" fy="189.579361" r="21.166656" gradientTransform="matrix(0.000000696681,0.31253,-0.562554,0.000000406154,216.460843,-30.109917)">
<stop offset="0" style="stop-color:rgb(0%,0%,0%);stop-opacity:0.313725;"/>
<stop offset="0.222222" style="stop-color:rgb(0%,0%,0%);stop-opacity:0.27451;"/>
<stop offset="1" style="stop-color:rgb(0%,0%,0%);stop-opacity:0;"/>
</radialGradient>
<linearGradient id="linear1" gradientUnits="userSpaceOnUse" x1="359.833344" y1="-147.5" x2="359.833344" y2="-62.833332" gradientTransform="matrix(0.250024,0,0,0.250024,0,53.755133)">
<stop offset="0" style="stop-color:rgb(39.215686%,70.980392%,96.470588%);stop-opacity:1;"/>
<stop offset="1" style="stop-color:rgb(73.333333%,87.058824%,98.431373%);stop-opacity:1;"/>
</linearGradient>
<linearGradient id="linear2" gradientUnits="userSpaceOnUse" x1="254" y1="-105.166656" x2="254" y2="95.916672" gradientTransform="matrix(0.250024,0,0,0.250024,0,53.755132)">
<stop offset="0" style="stop-color:rgb(39.215686%,70.980392%,96.470588%);stop-opacity:1;"/>
<stop offset="1" style="stop-color:rgb(98.823529%,89.411765%,92.54902%);stop-opacity:1;"/>
</linearGradient>
<linearGradient id="linear3" gradientUnits="userSpaceOnUse" x1="880" y1="1695.118164" x2="880" y2="1095.118164" gradientTransform="matrix(0.0661521,0,0,0.0661521,0,0)">
<stop offset="0" style="stop-color:rgb(14.901961%,19.607843%,21.960784%);stop-opacity:1;"/>
<stop offset="0.666667" style="stop-color:rgb(27.058824%,35.294118%,39.215686%);stop-opacity:1;"/>
<stop offset="1" style="stop-color:rgb(38.039216%,38.039216%,38.039216%);stop-opacity:1;"/>
</linearGradient>
<linearGradient id="linear4" gradientUnits="userSpaceOnUse" x1="960" y1="1455.118164" x2="960" y2="815.118103" gradientTransform="matrix(0.264583,0,0,0.264583,-0.000000666667,-225.583099)">
<stop offset="0" style="stop-color:rgb(69.019608%,74.509804%,77.254902%);stop-opacity:1;"/>
<stop offset="0.375" style="stop-color:rgb(77.254902%,79.215686%,91.372549%);stop-opacity:1;"/>
<stop offset="1" style="stop-color:rgb(32.941176%,43.137255%,47.843137%);stop-opacity:1;"/>
</linearGradient>
</defs>
<g id="surface1">
<path style=" stroke:none;fill-rule:nonzero;fill:url(#linear0);" d="M 15.875 112.136719 L 111.136719 112.136719 L 111.136719 117.429688 L 15.875 117.429688 Z M 15.875 112.136719 "/>
<path style=" stroke:none;fill-rule:nonzero;fill:url(#radial0);" d="M 111.136719 112.136719 L 121.71875 112.136719 L 121.71875 106.84375 L 111.136719 106.84375 Z M 111.136719 112.136719 "/>
<path style=" stroke:none;fill-rule:nonzero;fill:url(#radial1);" d="M 15.875 112.136719 L 5.292969 112.136719 L 5.292969 117.429688 L 15.875 117.429688 Z M 15.875 112.136719 "/>
<path style=" stroke:none;fill-rule:nonzero;fill:url(#radial2);" d="M 15.875 112.136719 L 5.292969 112.136719 L 5.292969 106.84375 L 15.875 106.84375 Z M 15.875 112.136719 "/>
<path style=" stroke:none;fill-rule:nonzero;fill:url(#radial3);" d="M 111.136719 112.136719 L 121.71875 112.136719 L 121.71875 117.429688 L 111.136719 117.429688 Z M 111.136719 112.136719 "/>
<path style=" stroke:none;fill-rule:nonzero;fill:url(#linear1);" d="M 29.105469 16.875 L 115.105469 16.875 C 118.027344 16.875 120.398438 19.246094 120.398438 22.167969 L 120.398438 42.015625 C 120.398438 44.9375 118.027344 47.304688 115.105469 47.304688 L 29.105469 47.304688 C 26.183594 47.304688 23.816406 44.9375 23.816406 42.015625 L 23.816406 22.167969 C 23.816406 19.246094 26.183594 16.875 29.105469 16.875 Z M 29.105469 16.875 "/>
<path style=" stroke:none;fill-rule:nonzero;fill:rgb(90.196079%,90.196079%,90.196079%);fill-opacity:0.588235;" d="M 29.105469 16.875 C 26.175781 16.875 23.816406 19.238281 23.816406 22.167969 L 23.816406 22.832031 C 23.816406 19.898438 26.175781 17.539062 29.105469 17.539062 L 115.105469 17.539062 C 118.035156 17.539062 120.398438 19.898438 120.398438 22.832031 L 120.398438 22.167969 C 120.398438 19.238281 118.035156 16.875 115.105469 16.875 Z M 29.105469 16.875 "/>
<path style=" stroke:none;fill-rule:nonzero;fill:rgb(12.941177%,12.941177%,12.941177%);fill-opacity:1;" d="M 29.105469 16.5 C 25.972656 16.5 23.441406 19.035156 23.441406 22.167969 L 23.441406 42.015625 C 23.441406 45.148438 25.972656 47.683594 29.105469 47.683594 L 115.105469 47.683594 C 118.238281 47.683594 120.773438 45.148438 120.773438 42.015625 L 120.773438 22.167969 C 120.773438 19.035156 118.238281 16.5 115.105469 16.5 Z M 29.105469 17.25 L 115.105469 17.25 C 117.835938 17.25 120.023438 19.4375 120.023438 22.167969 L 120.023438 42.015625 C 120.023438 44.746094 117.835938 46.933594 115.105469 46.933594 L 29.105469 46.933594 C 26.375 46.933594 24.191406 44.746094 24.191406 42.015625 L 24.191406 22.167969 C 24.191406 19.4375 26.375 17.25 29.105469 17.25 Z M 29.105469 17.25 "/>
<path style=" stroke:none;fill-rule:nonzero;fill:url(#linear2);" d="M 10.585938 27.460938 C 7.652344 27.460938 5.292969 29.820312 5.292969 32.753906 L 5.292969 106.84375 C 5.292969 109.773438 7.652344 112.136719 10.585938 112.136719 L 116.429688 112.136719 C 119.359375 112.136719 121.71875 109.773438 121.71875 106.84375 L 121.71875 40.691406 L 50.277344 40.691406 C 47.34375 40.691406 44.984375 38.332031 44.984375 35.398438 L 44.984375 27.460938 Z M 10.585938 27.460938 "/>
<path style=" stroke:none;fill-rule:nonzero;fill:url(#linear3);" d="M 5.292969 72.445312 L 5.292969 106.84375 C 5.292969 109.773438 7.652344 112.136719 10.585938 112.136719 L 116.429688 112.136719 C 119.359375 112.136719 121.71875 109.773438 121.71875 106.84375 L 121.71875 72.445312 C 117.246094 72.886719 116.429688 75.089844 107.167969 72.445312 C 104.851562 71.453125 98.898438 71.78125 92.613281 72.445312 C 87.320312 72.445312 82.027344 69.796875 78.058594 72.445312 C 76.738281 73.105469 74.21875 73.328125 70.972656 73.3125 C 62.183594 75.089844 54.246094 75.089844 46.375 72.070312 C 42.335938 71.121094 37.894531 72.003906 34.398438 72.445312 C 25.136719 73.765625 23.816406 75.089844 19.84375 72.445312 C 15.875 71.121094 11.90625 73.765625 5.292969 72.445312 Z M 5.292969 72.445312 "/>
<path style=" stroke:none;fill-rule:nonzero;fill:rgb(0%,0%,0%);fill-opacity:0.196078;" d="M 10.585938 112.136719 C 7.652344 112.136719 5.292969 109.777344 5.292969 106.84375 L 5.292969 106.183594 C 5.292969 109.113281 7.652344 111.472656 10.585938 111.472656 L 116.429688 111.472656 C 119.359375 111.472656 121.71875 109.113281 121.71875 106.183594 L 121.71875 106.84375 C 121.71875 109.777344 119.359375 112.136719 116.429688 112.136719 Z M 10.585938 112.136719 "/>
<path style=" stroke:none;fill-rule:nonzero;fill:rgb(90.196079%,90.196079%,90.196079%);fill-opacity:0.937255;" d="M 10.585938 27.460938 C 7.652344 27.460938 5.292969 29.820312 5.292969 32.753906 L 5.292969 33.414062 C 5.292969 30.484375 7.652344 28.121094 10.585938 28.121094 L 44.984375 28.121094 L 44.984375 27.460938 Z M 10.585938 27.460938 "/>
<path style=" stroke:none;fill-rule:nonzero;fill:rgb(90.196079%,90.196079%,90.196079%);fill-opacity:0.937255;" d="M 49.945312 41.023438 C 47.011719 41.023438 44.652344 38.660156 44.652344 35.730469 L 44.652344 35.070312 C 44.652344 38 47.011719 40.367188 49.945312 40.359375 L 121.71875 40.359375 L 121.71875 41.023438 Z M 49.945312 41.023438 "/>
<path style=" stroke:none;fill-rule:nonzero;fill:rgb(12.941177%,12.941177%,12.941177%);fill-opacity:1;" d="M 10.585938 27.085938 C 7.453125 27.085938 4.917969 29.621094 4.917969 32.753906 L 4.917969 106.84375 C 4.917969 109.976562 7.453125 112.511719 10.585938 112.511719 L 116.429688 112.511719 C 119.5625 112.511719 122.09375 109.976562 122.09375 106.84375 L 122.09375 39.941406 L 50.277344 39.941406 C 47.546875 39.941406 45.359375 37.753906 45.359375 35.023438 L 45.359375 27.085938 Z M 10.585938 27.835938 L 44.609375 27.835938 L 44.609375 35.023438 C 44.609375 38.15625 47.140625 40.691406 50.277344 40.691406 L 121.34375 40.691406 L 121.34375 106.84375 C 121.34375 109.574219 119.160156 111.761719 116.429688 111.761719 L 10.585938 111.761719 C 7.855469 111.761719 5.667969 109.574219 5.667969 106.84375 L 5.667969 32.753906 C 5.667969 30.023438 7.855469 27.835938 10.585938 27.835938 Z M 10.585938 27.835938 "/>
<path style="fill-rule:nonzero;fill:url(#linear4);stroke-width:3;stroke-linecap:round;stroke-linejoin:miter;stroke:rgb(12.941177%,12.941177%,12.941177%);stroke-opacity:1;stroke-miterlimit:4;" d="M 222.244402 -9.91021 C 216.385586 -9.91021 211.667287 -5.191911 211.667287 0.666905 L 211.667287 106.500548 L 179.920318 106.500548 L 254.006994 159.41737 L 328.078045 106.500548 L 296.331077 106.500548 L 296.331077 0.666905 C 296.331077 -5.191911 291.612777 -9.91021 285.753962 -9.91021 C 247.39825 -9.91021 239.836472 -9.91021 222.244402 -9.91021 Z M 222.244402 -9.91021 " transform="matrix(0.250024,0,0,0.250024,0,53.755133)"/>
<path style=" stroke:none;fill-rule:nonzero;fill:rgb(25.882354%,25.882354%,25.882354%);fill-opacity:0.313725;" d="M 74.089844 73.230469 C 73.152344 73.292969 72.109375 73.316406 70.972656 73.3125 C 64.609375 74.601562 58.691406 74.953125 52.921875 73.90625 L 52.921875 80.382812 L 44.984375 80.382812 L 63.507812 93.613281 L 82.027344 80.382812 L 74.089844 80.382812 Z M 74.089844 73.230469 "/>
</g>
</svg>

<svg xmlns="http://www.w3.org/2000/svg" width="128pt" height="128pt" viewBox="0 0 128 128"><defs><linearGradient id="a" gradientUnits="userSpaceOnUse" x1="254" y1="233.5" x2="254" y2="254.667" gradientTransform="matrix(.25002 0 0 .25002 0 53.755)"><stop offset="0" stop-opacity=".275"/><stop offset="1" stop-opacity="0"/></linearGradient><radialGradient id="b" gradientUnits="userSpaceOnUse" cx="450.909" cy="189.579" fx="450.909" fy="189.579" r="21.167" gradientTransform="matrix(0 -.31253 -.56255 0 216.46 254.381)"><stop offset="0" stop-opacity=".314"/><stop offset=".222" stop-opacity=".275"/><stop offset="1" stop-opacity="0"/></radialGradient><radialGradient id="c" gradientUnits="userSpaceOnUse" cx="450.909" cy="189.579" fx="450.909" fy="189.579" r="21.167" gradientTransform="matrix(0 .31253 .56255 0 -89.449 -30.11)"><stop offset="0" stop-opacity=".314"/><stop offset=".222" stop-opacity=".275"/><stop offset="1" stop-opacity="0"/></radialGradient><radialGradient id="d" gradientUnits="userSpaceOnUse" cx="450.909" cy="189.579" fx="450.909" fy="189.579" r="21.167" gradientTransform="matrix(0 -.31253 .56255 0 -89.449 254.381)"><stop offset="0" stop-opacity=".314"/><stop offset=".222" stop-opacity=".275"/><stop offset="1" stop-opacity="0"/></radialGradient><radialGradient id="e" gradientUnits="userSpaceOnUse" cx="450.909" cy="189.579" fx="450.909" fy="189.579" r="21.167" gradientTransform="matrix(0 .31253 -.56255 0 216.46 -30.11)"><stop offset="0" stop-opacity=".314"/><stop offset=".222" stop-opacity=".275"/><stop offset="1" stop-opacity="0"/></radialGradient><linearGradient id="f" gradientUnits="userSpaceOnUse" x1="359.833" y1="-147.5" x2="359.833" y2="-62.833" gradientTransform="matrix(.25002 0 0 .25002 0 53.755)"><stop offset="0" stop-color="#64b5f6"/><stop offset="1" stop-color="#bbdefb"/></linearGradient><linearGradient id="g" gradientUnits="userSpaceOnUse" x1="254" y1="-105.167" x2="254" y2="95.917" gradientTransform="matrix(.25002 0 0 .25002 0 53.755)"><stop offset="0" stop-color="#64b5f6"/><stop offset="1" stop-color="#fce4ec"/></linearGradient><linearGradient id="h" gradientUnits="userSpaceOnUse" x1="880" y1="1695.118" x2="880" y2="1095.118" gradientTransform="scale(.06615)"><stop offset="0" stop-color="#263238"/><stop offset=".667" stop-color="#455a64"/><stop offset="1" stop-color="#616161"/></linearGradient><linearGradient id="i" gradientUnits="userSpaceOnUse" x1="960" y1="1455.118" x2="960" y2="815.118" gradientTransform="matrix(.26458 0 0 .26458 0 -225.583)"><stop offset="0" stop-color="#b0bec5"/><stop offset=".375" stop-color="#c5cae9"/><stop offset="1" stop-color="#546e7a"/></linearGradient></defs><path d="M15.875 112.137h95.262v5.293H15.875zm0 0" fill="url(#a)"/><path d="M111.137 112.137h10.582v-5.293h-10.582zm0 0" fill="url(#b)"/><path d="M15.875 112.137H5.293v5.293h10.582zm0 0" fill="url(#c)"/><path d="M15.875 112.137H5.293v-5.293h10.582zm0 0" fill="url(#d)"/><path d="M111.137 112.137h10.582v5.293h-10.582zm0 0" fill="url(#e)"/><path d="M29.105 16.875h86a5.295 5.295 0 0 1 5.293 5.293v19.848a5.291 5.291 0 0 1-5.293 5.289h-86a5.288 5.288 0 0 1-5.289-5.29V22.169a5.291 5.291 0 0 1 5.29-5.293zm0 0" fill="url(#f)"/><path d="M29.105 16.875a5.281 5.281 0 0 0-5.289 5.293v.664a5.279 5.279 0 0 1 5.29-5.293h86c2.93 0 5.292 2.36 5.292 5.293v-.664a5.285 5.285 0 0 0-5.293-5.293zm0 0" fill="#e6e6e6" fill-opacity=".588"/><path d="M29.105 16.5a5.661 5.661 0 0 0-5.664 5.668v19.848a5.661 5.661 0 0 0 5.664 5.668h86a5.665 5.665 0 0 0 5.668-5.668V22.168a5.665 5.665 0 0 0-5.668-5.668zm0 .75h86a4.9 4.9 0 0 1 4.918 4.918v19.848a4.9 4.9 0 0 1-4.918 4.918h-86a4.896 4.896 0 0 1-4.914-4.918V22.168a4.896 4.896 0 0 1 4.914-4.918zm0 0" fill="#212121"/><path d="M10.586 27.46a5.28 5.28 0 0 0-5.293 5.294v74.09c0 2.93 2.36 5.293 5.293 5.293H116.43c2.93 0 5.289-2.364 5.289-5.293V40.69H50.277a5.28 5.28 0 0 1-5.293-5.293v-7.937zm0 0" fill="url(#g)"/><path d="M5.293 72.445v34.399c0 2.93 2.36 5.293 5.293 5.293H116.43c2.93 0 5.289-2.364 5.289-5.293V72.445c-4.473.442-5.29 2.645-14.551 0-2.316-.992-8.27-.664-14.555 0-5.293 0-10.586-2.648-14.554 0-1.32.66-3.84.883-7.086.868-8.79 1.777-16.727 1.777-24.598-1.243-4.04-.949-8.48-.066-11.977.375-9.261 1.32-10.582 2.645-14.554 0-3.969-1.324-7.938 1.32-14.551 0zm0 0" fill="url(#h)"/><path d="M10.586 112.137a5.28 5.28 0 0 1-5.293-5.293v-.66c0 2.93 2.36 5.289 5.293 5.289H116.43c2.93 0 5.289-2.36 5.289-5.29v.66a5.279 5.279 0 0 1-5.29 5.294zm0 0" fill-opacity=".196"/><path d="M10.586 27.46a5.28 5.28 0 0 0-5.293 5.294v.66c0-2.93 2.36-5.293 5.293-5.293h34.398v-.66zm0 0M49.945 41.023a5.282 5.282 0 0 1-5.293-5.293v-.66c0 2.93 2.36 5.297 5.293 5.29h71.774v.663zm0 0" fill="#e6e6e6" fill-opacity=".937"/><path d="M10.586 27.086a5.665 5.665 0 0 0-5.668 5.668v74.09a5.665 5.665 0 0 0 5.668 5.668H116.43a5.661 5.661 0 0 0 5.664-5.668V39.94H50.277a4.9 4.9 0 0 1-4.918-4.918v-7.937zm0 .75h34.023v7.187a5.662 5.662 0 0 0 5.668 5.668h71.067v66.153a4.896 4.896 0 0 1-4.914 4.918H10.586a4.9 4.9 0 0 1-4.918-4.918v-74.09a4.9 4.9 0 0 1 4.918-4.918zm0 0" fill="#212121"/><path d="M222.244-9.91A10.555 10.555 0 0 0 211.667.667V106.5H179.92l74.087 52.916 74.071-52.916h-31.747V.667A10.555 10.555 0 0 0 285.754-9.91h-63.51zm0 0" transform="matrix(.25002 0 0 .25002 0 53.755)" fill="url(#i)" stroke-width="3" stroke-linecap="round" stroke="#212121"/><path d="M74.09 73.23c-.938.063-1.98.086-3.117.082-6.364 1.29-12.282 1.641-18.051.594v6.477h-7.938l18.524 13.23 18.52-13.23H74.09zm0 0" fill="#424242" fill-opacity=".314"/></svg>
